X: 9317
T: Dancin' Dick
R: jig
M: 6/8
K: Ddorian
A|:~d3 fed|a_ba gfe|fdB cde|gfe dcA|
~d3 fed|a_ba gfe|dcd egf|edc d2A:|
|:~d3 dcd|efe dcB|cAF GAB|~c3 cBc|
~d3 fed|a_ba gfe|dcd egf|edc d2A:|

